src/assets/bold/lm-rectangle-dashed-arrow-bold.svg

<svg width="24" height="24" viewBox="0 0 24 24" fill="none" xmlns="http://www.w3.org/2000/svg" fill="currentColor">
<path d="M7.28033 5.03033C7.42098 4.88968 7.5 4.69891 7.5 4.5C7.5 4.30109 7.42098 4.11032 7.28033 3.96967C7.13968 3.82902 6.94891 3.75 6.75 3.75H3.75C3.35218 3.75 2.97064 3.90804 2.68934 4.18934C2.40804 4.47064 2.25 4.85218 2.25 5.25V6.75C2.25 6.94891 2.32902 7.13968 2.46967 7.28033C2.61032 7.42098 2.80109 7.5 3 7.5C3.19891 7.5 3.38968 7.42098 3.53033 7.28033C3.67098 7.13968 3.75 6.94891 3.75 6.75V5.25H6.75C6.94891 5.25 7.13968 5.17098 7.28033 5.03033Z" fill="black"/>
<path d="M3.53033 14.0303C3.38968 14.171 3.19891 14.25 3 14.25C2.80109 14.25 2.61032 14.171 2.46967 14.0303C2.32902 13.8897 2.25 13.6989 2.25 13.5V10.5C2.25 10.3011 2.32902 10.1103 2.46967 9.96967C2.61032 9.82902 2.80109 9.75 3 9.75C3.19891 9.75 3.38968 9.82902 3.53033 9.96967C3.67098 10.1103 3.75 10.3011 3.75 10.5V13.5C3.75 13.6989 3.67098 13.8897 3.53033 14.0303Z" fill="black"/>
<path d="M3.75 18.75H6.75C6.94891 18.75 7.13968 18.829 7.28033 18.9697C7.42098 19.1103 7.5 19.3011 7.5 19.5C7.5 19.6989 7.42098 19.8897 7.28033 20.0303C7.13968 20.171 6.94891 20.25 6.75 20.25H3.75C3.35218 20.25 2.97064 20.092 2.68934 19.8107C2.40804 19.5294 2.25 19.1478 2.25 18.75V17.25C2.25 17.0511 2.32902 16.8603 2.46967 16.7197C2.61032 16.579 2.80109 16.5 3 16.5C3.19891 16.5 3.38968 16.579 3.53033 16.7197C3.67098 16.8603 3.75 17.0511 3.75 17.25V18.75Z" fill="black"/>
<path d="M20.4697 16.7197C20.6103 16.579 20.8011 16.5 21 16.5C21.1989 16.5 21.3897 16.579 21.5303 16.7197C21.671 16.8603 21.75 17.0511 21.75 17.25V18.75C21.75 19.1478 21.592 19.5294 21.3107 19.8107C21.0294 20.092 20.6478 20.25 20.25 20.25H15.4357L16.1553 20.9697C16.4482 21.2626 16.4482 21.7374 16.1553 22.0303C15.8624 22.3232 15.3876 22.3232 15.0947 22.0303L13.2197 20.1553C12.9268 19.8624 12.9268 19.3876 13.2197 19.0947L15.0947 17.2197C15.3876 16.9268 15.8624 16.9268 16.1553 17.2197C16.4482 17.5126 16.4482 17.9874 16.1553 18.2803L15.6857 18.75H20.25V17.25C20.25 17.0511 20.329 16.8603 20.4697 16.7197Z" fill="black"/>
<path d="M20.4697 9.96967C20.6103 9.82902 20.8011 9.75 21 9.75C21.1989 9.75 21.3897 9.82902 21.5303 9.96967C21.671 10.1103 21.75 10.3011 21.75 10.5V13.5C21.75 13.6989 21.671 13.8897 21.5303 14.0303C21.3897 14.171 21.1989 14.25 21 14.25C20.8011 14.25 20.6103 14.171 20.4697 14.0303C20.329 13.8897 20.25 13.6989 20.25 13.5V10.5C20.25 10.3011 20.329 10.1103 20.4697 9.96967Z" fill="black"/>
<path d="M17.25 3.75H20.25C20.6478 3.75 21.0294 3.90804 21.3107 4.18934C21.592 4.47064 21.75 4.85218 21.75 5.25V6.75C21.75 6.94891 21.671 7.13968 21.5303 7.28033C21.3897 7.42098 21.1989 7.5 21 7.5C20.8011 7.5 20.6103 7.42098 20.4697 7.28033C20.329 7.13968 20.25 6.94891 20.25 6.75V5.25H17.25C17.0511 5.25 16.8603 5.17098 16.7197 5.03033C16.579 4.88968 16.5 4.69891 16.5 4.5C16.5 4.30109 16.579 4.11032 16.7197 3.96967C16.8603 3.82902 17.0511 3.75 17.25 3.75Z" fill="black"/>
<path d="M10.5 3.75H13.5C13.6989 3.75 13.8897 3.82902 14.0303 3.96967C14.171 4.11032 14.25 4.30109 14.25 4.5C14.25 4.69891 14.171 4.88968 14.0303 5.03033C13.8897 5.17098 13.6989 5.25 13.5 5.25H10.5C10.3011 5.25 10.1103 5.17098 9.96967 5.03033C9.82902 4.88968 9.75 4.69891 9.75 4.5C9.75 4.30109 9.82902 4.11032 9.96967 3.96967C10.1103 3.82902 10.3011 3.75 10.5 3.75Z" fill="black"/>
</svg>

<svg xmlns="http://www.w3.org/2000/svg" width="24" height="24" fill="currentColor" viewBox="0 0 24 24">
  <path d="M7.28 5.03a.75.75 0 0 0-.53-1.28h-3a1.5 1.5 0 0 0-1.5 1.5v1.5a.75.75 0 0 0 1.5 0v-1.5h3a.75.75 0 0 0 .53-.22Zm-3.75 9a.75.75 0 0 1-1.28-.53v-3a.75.75 0 1 1 1.5 0v3a.75.75 0 0 1-.22.53Zm.22 4.72h3a.75.75 0 1 1 0 1.5h-3a1.5 1.5 0 0 1-1.5-1.5v-1.5a.75.75 0 1 1 1.5 0v1.5Zm16.72-2.03a.75.75 0 0 1 1.28.53v1.5a1.5 1.5 0 0 1-1.5 1.5h-4.814l.72.72a.75.75 0 1 1-1.061 1.06l-1.875-1.875a.75.75 0 0 1 0-1.06l1.875-1.875a.75.75 0 1 1 1.06 1.06l-.47.47h4.565v-1.5a.75.75 0 0 1 .22-.53Zm0-6.75a.75.75 0 0 1 1.28.53v3a.75.75 0 1 1-1.5 0v-3a.75.75 0 0 1 .22-.53Zm-3.22-6.22h3a1.5 1.5 0 0 1 1.5 1.5v1.5a.75.75 0 1 1-1.5 0v-1.5h-3a.75.75 0 1 1 0-1.5Zm-6.75 0h3a.75.75 0 1 1 0 1.5h-3a.75.75 0 1 1 0-1.5Z"/>
</svg>
